src/assets/icons/history.svg

<svg width="14" height="14" viewBox="0 0 14 14" fill="none" xmlns="http://www.w3.org/2000/svg">
<g id="history">
<g clip-path="url(#clip0_156_4638)">
<path id="Vector" fill-rule="evenodd" clip-rule="evenodd" d="M0.617882 0.098877C0.959099 0.098877 1.23571 0.375488 1.23571 0.716705V3.11325L2.22397 2.12499C4.92009 -0.57113 9.28185 -0.57113 11.978 2.12499C14.6741 4.8211 14.6741 9.18289 11.978 11.879C9.28185 14.5751 4.92009 14.5751 2.22397 11.879C1.9827 11.6377 1.9827 11.2465 2.22397 11.0053C2.46525 10.764 2.85644 10.764 3.09771 11.0053C5.31128 13.2188 8.89067 13.2188 11.1042 11.0053C13.3178 8.7917 13.3178 5.21229 11.1042 2.99873C8.89067 0.785166 5.31128 0.785166 3.09771 2.99873L2.08465 4.01179H4.5308C4.87201 4.01179 5.14862 4.2884 5.14862 4.62962C5.14862 4.97084 4.87201 5.24745 4.5308 5.24745H0.617882C0.276665 5.24745 5.34058e-05 4.97084 5.34058e-05 4.62962V0.716705C5.34058e-05 0.375488 0.276665 0.098877 0.617882 0.098877ZM7.61994 3.39396C7.61994 3.05274 7.34333 2.77613 7.00211 2.77613C6.66089 2.77613 6.38428 3.05274 6.38428 3.39396V6.68905C6.38428 6.8529 6.44937 7.01005 6.56524 7.12592L8.62467 9.18535C8.86594 9.42662 9.25713 9.42662 9.49841 9.18535C9.73969 8.94407 9.73969 8.55288 9.49841 8.3116L7.61994 6.43313V3.39396Z" fill="black"/>
</g>
</g>
<defs>
<clipPath id="clip0_156_4638">
<rect width="14" height="14" fill="white"/>
</clipPath>
</defs>
</svg>

<svg xmlns="http://www.w3.org/2000/svg" fill="none" viewBox="0 0 14 14"><g clip-path="url(#a)"><path fill="#000" fill-rule="evenodd" d="M.618.099c.341 0 .618.276.618.618v2.396l.988-.988a6.89 6.89 0 0 1 9.754 0 6.89 6.89 0 0 1 0 9.754 6.89 6.89 0 0 1-9.754 0 .618.618 0 1 1 .874-.874 5.657 5.657 0 0 0 8.006 0 5.657 5.657 0 0 0 0-8.006 5.657 5.657 0 0 0-8.006 0L2.085 4.012H4.53a.618.618 0 0 1 0 1.235H.618A.62.62 0 0 1 0 4.63V.717C0 .375.277.099.618.099M7.62 3.394a.618.618 0 1 0-1.236 0v3.295c0 .164.065.321.181.437l2.06 2.06a.618.618 0 0 0 .873-.874L7.62 6.433z" clip-rule="evenodd"/></g><defs><clipPath id="a"><path fill="#fff" d="M0 0h14v14H0z"/></clipPath></defs></svg>
